X:0910
T:Cadgers in the Canongate
P:John McNeil's Reel
C:Peter Milne
R:Reel (8x48) ABABAB
B:RSCDS 9-10
Z:Anselm Lingnau <anselm@strathspey.org>
M:C|
L:1/8
K:A
C !segno!||\
"A"A,2 CE FECE | AECE FECE |\
A,2 CE FECE | "D"FAGF "E7"EDCB, |
"A"A,2 CE FECE | AECE FEDC |\
"E/G#"B,D"A"CE "Bm"DF"A7/C#"E=G | "D"FA"E7"GB "A"cA A ||
f | "A"eA"D"fA "A"eAca | "A"eA"D"fA "A"e2 f/g/a |\
"A"eA"D"fA "A"eAce | "D"df"A/D#"ca "E"B2 d/e/f |
"A"eA"D"fA "A"eAca | "A"eA"D"fA "A"e2 e/f/g |\
agag fedc | "E7"BAGF EDC!D.S.!B, |]
